; generated by PrusaSlicer 2.4.1+win64 on 2022-09-06 at 15:30:26 UTC

; 

; external perimeters extrusion width = 0.45mm
; perimeters extrusion width = 0.45mm
; infill extrusion width = 0.45mm
; solid infill extrusion width = 0.45mm
; top infill extrusion width = 0.40mm
; first layer extrusion width = 0.42mm

M73 P0 R78
M73 Q0 S78
M107
;TYPE:Custom
M862.3 P "MK3S" ; printer model check
M862.1 P0.4 ; nozzle diameter check
M115 U3.10.0 ; tell printer latest fw version
G90 ; use absolute coordinates
M83 ; extruder relative mode
M104 S215 ; set extruder temp
M140 S60 ; set bed temp
M190 S60 ; wait for bed temp
M109 S215 ; wait for extruder temp
G28 W ; home all without mesh bed level
G80 ; mesh bed leveling
G1 Y-3.0 F1000.0 ; go outside print area
G92 E0.0
G1 X60.0 E9.0 F1000.0 ; intro line
G1 X100.0 E12.5 F1000.0 ; intro line
G92 E0.0
M221 S95

; Don't change E values below. Excessive value can damage the printer.

M907 E538 ; set extruder motor current
G21 ; set units to millimeters
G90 ; use absolute coordinates
M83 ; use relative distances for extrusion
M900 K0.05 ; Filament gcode LA 1.5
M900 K30 ; Filament gcode LA 1.0
M107
;LAYER_CHANGE
;Z:0.2
;HEIGHT:0.2
;BEFORE_LAYER_CHANGE
G92 E0.0
;0.2


G1 E-.8 F2100
G1 Z.4 F10800
;AFTER_LAYER_CHANGE
;0.2
G1 X48.239 Y96.057
G1 Z.2
G1 E.8 F2100
M204 S1000
;TYPE:Skirt/Brim
;WIDTH:0.42
G1 F1200
G1 X178.999 Y39.181 E4.47095
G1 X180.206 Y38.84 E.0393
M73 Q0 S77
G1 X181.38 Y38.84 E.03682
G1 X182.643 Y39.206 E.04122
G1 X202.472 Y48.497 E.68659
G1 X203.372 Y49.251 E.03682
G1 X204.008 Y50.16 E.03477
G1 X204.409 Y51.263 E.03681
G1 X204.506 Y52.368 E.03477
G1 X204.376 Y53.28 E.02887
G1 X179.78 Y153.153 E3.22503
G1 X179.513 Y153.962 E.02671
G1 X179.146 Y154.63 E.0239
G1 X178.669 Y155.225 E.0239
G1 X178.097 Y155.728 E.0239
G1 X176.895 Y156.355 E.0425
G1 X158.664 Y162.28 E.60104
G1 X137.969 Y168.317 E.67594
G1 X115.091 Y171.166 E.72286
G1 X114.122 Y171.173 E.03038
G1 X92.015 Y167.602 E.70214
G1 X67.182 Y159.65 E.81754
G1 X66.175 Y159.062 E.03656
M73 P0 R77
G1 X47.175 Y145.062 E.73999
G1 X46.392 Y144.265 E.03504
G1 X45.985 Y143.621 E.0239
G1 X45.696 Y142.916 E.0239
G1 X45.494 Y141.616 E.04122
G1 X45.494 Y100.116 E1.3012
G1 X45.605 Y99.154 E.03038
G1 X45.985 Y98.112 E.03477
G1 X46.658 Y97.15 E.03681
G1 X47.222 Y96.637 E.0239
G1 X48.187 Y96.087 E.03482
; printing object Body1.stl id:0 copy 0
;WIPE_START
G1 F8640
G1 X51.205 Y94.774 E-.76
;WIPE_END
G1 E-.04 F2100
G1 Z.6 F10800
G1 X111.166 Y110.78
G1 Z.2
G1 E.8 F2100
;TYPE:Perimeter
G1 F1200
G1 X111.044 Y109.789 E.03133
G1 X126.501 Y107.891 E.48829
G1 X126.623 Y108.882 E.03133
G1 X127.416 Y108.785 E.02506
G1 X127.986 Y113.425 E.14657
G1 X127.193 Y113.522 E.02506
G1 X127.708 Y117.715 E.13246
G1 X128.501 Y117.618 E.02506
G1 X129.071 Y122.256 E.14653
G1 X128.277 Y122.354 E.02506
G1 X128.399 Y123.347 E.03137
G1 X112.942 Y125.245 E.48829
G1 X112.82 Y124.252 E.03137
G1 X112.026 Y124.349 E.02506
G1 X111.457 Y119.711 E.14653
G1 X112.25 Y119.613 E.02506
G1 X112.242 Y119.544 E.00218
G1 X111.735 Y115.42 E.13028
G1 X110.942 Y115.518 E.02506
G1 X110.372 Y110.878 E.14657
G1 X111.106 Y110.788 E.02318
G1 X110.792 Y111.206 F10800
;TYPE:External perimeter
G1 F1200
G1 X111.586 Y111.109 E.02506
G1 X111.464 Y110.117 E.03133
G1 X126.173 Y108.311 E.46465
G1 X126.295 Y109.303 E.03133
G1 X127.088 Y109.205 E.02506
G1 X127.566 Y113.096 E.12293
G1 X126.772 Y113.194 E.02506
G1 X127.379 Y118.136 E.15611
G1 X128.173 Y118.038 E.02506
G1 X128.65 Y121.928 E.12288
G1 X127.857 Y122.026 E.02506
G1 X127.979 Y123.019 E.03137
G1 X113.27 Y124.825 E.46465
G1 X113.148 Y123.832 E.03137
G1 X112.355 Y123.929 E.02506
G1 X111.877 Y120.039 E.12288
G1 X112.67 Y119.942 E.02506
G1 X112.616 Y119.498 E.014
G1 X112.064 Y115 E.1421
G1 X111.27 Y115.097 E.02506
G1 X110.8 Y111.266 E.12105
G1 X110.717 Y110.813 F10800
;WIPE_START
G1 F8640
G1 X111.586 Y111.109 E-.1851
G1 X111.464 Y110.117 E-.23069
G1 X112.944 Y109.935 E-.34421
;WIPE_END
G1 E-.04 F2100
G1 Z.6 F10800
G1 X113.359 Y128.647
G1 Z.2
G1 E.8 F2100
;TYPE:Perimeter
G1 F1200
G1 X128.817 Y126.749 E.48829
G1 X128.938 Y127.741 E.03133
G1 X129.732 Y127.643 E.02506
G1 X130.302 Y132.283 E.14657
G1 X129.508 Y132.381 E.02506
G1 X129.53 Y132.559 E.00562
G1 X130.023 Y136.574 E.12684
G1 X130.817 Y136.476 E.02506
G1 X131.386 Y141.115 E.14653
G1 X130.593 Y141.212 E.02506
G1 X130.715 Y142.205 E.03137
G1 X115.257 Y144.103 E.48829
G1 X115.135 Y143.11 E.03137
G1 X114.342 Y143.208 E.02506
G1 X113.772 Y138.569 E.14653
G1 X114.566 Y138.472 E.02506
G1 X114.051 Y134.278 E.13246
G1 X113.257 Y134.376 E.02506
G1 X112.688 Y129.736 E.14657
G1 X113.481 Y129.639 E.02506
G1 X113.367 Y128.707 E.02944
G1 X113.78 Y128.975 F10800
;TYPE:External perimeter
G1 F1200
G1 X128.488 Y127.169 E.46465
G1 X128.61 Y128.161 E.03133
G1 X129.404 Y128.063 E.02506
G1 X129.881 Y131.955 E.12293
G1 X129.088 Y132.052 E.02506
G1 X129.156 Y132.605 E.01745
G1 X129.695 Y136.994 E.13866
G1 X130.488 Y136.897 E.02506
G1 X130.966 Y140.787 E.12288
G1 X130.172 Y140.884 E.02506
G1 X130.294 Y141.877 E.03137
G1 X115.585 Y143.683 E.46465
G1 X115.464 Y142.69 E.03137
G1 X114.67 Y142.787 E.02506
G1 X114.192 Y138.897 E.12288
G1 X114.986 Y138.8 E.02506
G1 X114.379 Y133.858 E.15611
G1 X113.586 Y133.956 E.02506
G1 X113.108 Y130.064 E.12293
G1 X113.901 Y129.967 E.02506
G1 X113.787 Y129.035 E.02944
G1 X113.821 Y128.577 F10800
;WIPE_START
G1 F8640
G1 X117.052 Y128.62 E-.76
;WIPE_END
G1 E-.04 F2100
G1 Z.6 F10800
G1 X115.797 Y148.497
M73 Q1 S77
G1 Z.2
G1 E.8 F2100
;TYPE:Perimeter
G1 F1200
G1 X115.675 Y147.505 E.03133
G1 X131.132 Y145.607 E.48829
G1 X131.254 Y146.599 E.03133
M73 P1 R77
G1 X132.047 Y146.502 E.02506
G1 X132.617 Y151.142 E.14657
G1 X131.824 Y151.239 E.02506
G1 X132.339 Y155.432 E.13246
G1 X133.132 Y155.335 E.02506
G1 X133.702 Y159.973 E.14653
G1 X132.908 Y160.071 E.02506
G1 X133.03 Y161.064 E.03137
G1 X117.573 Y162.962 E.48829
G1 X117.451 Y161.969 E.03137
G1 X116.657 Y162.066 E.02506
G1 X116.088 Y157.427 E.14653
G1 X116.881 Y157.33 E.02506
G1 X116.692 Y155.789 E.04867
G1 X116.366 Y153.137 E.08379
G1 X115.573 Y153.234 E.02506
G1 X115.003 Y148.594 E.14657
G1 X115.737 Y148.504 E.02318
G1 X116.095 Y147.834 F10800
;TYPE:External perimeter
G1 F1200
G1 X130.804 Y146.028 E.46465
G1 X130.926 Y147.019 E.03133
G1 X131.719 Y146.922 E.02506
G1 X132.197 Y150.813 E.12293
G1 X131.404 Y150.911 E.02506
G1 X132.01 Y155.852 E.15611
G1 X132.804 Y155.755 E.02506
G1 X133.281 Y159.645 E.12288
G1 X132.488 Y159.742 E.02506
G1 X132.61 Y160.735 E.03137
G1 X117.901 Y162.541 E.46465
G1 X117.779 Y161.548 E.03137
G1 X116.986 Y161.646 E.02506
G1 X116.508 Y157.756 E.12288
G1 X117.301 Y157.658 E.02506
G1 X117.066 Y155.743 E.06049
G1 X116.695 Y152.717 E.09562
G1 X115.901 Y152.814 E.02506
G1 X115.423 Y148.923 E.12293
G1 X116.217 Y148.825 E.02506
G1 X116.102 Y147.893 E.02944
G1 X116.136 Y147.436 F10800
;WIPE_START
G1 F8640
G1 X119.368 Y147.479 E-.76
;WIPE_END
G1 E-.04 F2100
G1 Z.6 F10800
G1 X112.833 Y159.413
G1 Z.2
G1 E.8 F2100
;TYPE:Perimeter
G1 F1200
G1 X113.155 Y159.43 E.0101
G1 X113.421 Y159.501 E.00863
G1 X113.664 Y159.614 E.00842
G1 X113.884 Y159.768 E.00842
G1 X114.074 Y159.958 E.00842
G1 X114.228 Y160.178 E.00842
G1 X114.341 Y160.421 E.00842
G1 X114.411 Y160.681 E.00842
G1 X114.434 Y160.948 E.00842
G1 X114.411 Y161.216 E.00842
G1 X114.341 Y161.475 E.00842
G1 X114.228 Y161.718 E.00842
G1 X114.074 Y161.938 E.00842
G1 X113.884 Y162.128 E.00842
G1 X113.664 Y162.282 E.00842
G1 X113.421 Y162.395 E.00842
G1 X113.161 Y162.465 E.00842
G1 X112.894 Y162.488 E.00842
G1 X112.627 Y162.465 E.00842
G1 X112.367 Y162.395 E.00842
G1 X112.124 Y162.282 E.00842
G1 X111.904 Y162.128 E.00842
G1 X111.714 Y161.938 E.00842
G1 X111.56 Y161.718 E.00842
G1 X111.447 Y161.475 E.00842
G1 X111.377 Y161.215 E.00842
G1 X111.354 Y160.948 E.00842
G1 X111.377 Y160.681 E.00842
G1 X111.447 Y160.421 E.00842
G1 X111.56 Y160.178 E.00842
G1 X111.714 Y159.958 E.00842
G1 X111.904 Y159.768 E.00842
G1 X112.124 Y159.614 E.00842
G1 X112.367 Y159.501 E.00842
G1 X112.627 Y159.431 E.00842
G1 X112.773 Y159.419 E.00462
G1 X112.866 Y159.789 F10800
;TYPE:External perimeter
G1 F1200
G1 X113.093 Y159.804 E.00714
G1 X113.291 Y159.857 E.00643
G1 X113.475 Y159.942 E.00635
G1 X113.641 Y160.058 E.00635
G1 X113.784 Y160.201 E.00635
G1 X113.9 Y160.367 E.00635
G1 X113.986 Y160.551 E.00635
G1 X114.038 Y160.746 E.00635
G1 X114.056 Y160.948 E.00635
G1 X114.038 Y161.15 E.00635
G1 X113.986 Y161.345 E.00635
G1 X113.9 Y161.529 E.00635
G1 X113.784 Y161.695 E.00635
G1 X113.641 Y161.838 E.00635
G1 X113.475 Y161.954 E.00635
G1 X113.291 Y162.04 E.00635
G1 X113.096 Y162.092 E.00635
G1 X112.894 Y162.11 E.00635
G1 X112.692 Y162.092 E.00635
G1 X112.497 Y162.04 E.00635
G1 X112.313 Y161.954 E.00635
G1 X112.147 Y161.838 E.00635
G1 X112.004 Y161.695 E.00635
G1 X111.888 Y161.529 E.00635
G1 X111.802 Y161.345 E.00635
G1 X111.75 Y161.15 E.00635
G1 X111.732 Y160.948 E.00635
G1 X111.75 Y160.746 E.00635
G1 X111.802 Y160.551 E.00635
G1 X111.888 Y160.367 E.00635
G1 X112.004 Y160.201 E.00635
G1 X112.147 Y160.058 E.00635
G1 X112.313 Y159.942 E.00635
G1 X112.497 Y159.857 E.00635
G1 X112.692 Y159.804 E.00635
G1 X112.806 Y159.794 E.00359
G1 X112.976 Y159.59 F10800
;WIPE_START
G1 F8640
G1 X113.093 Y159.804 E-.06633
G1 X113.291 Y159.857 E-.04732
G1 X113.475 Y159.942 E-.04675
G1 X113.641 Y160.058 E-.04675
G1 X113.784 Y160.201 E-.04675
G1 X113.9 Y160.367 E-.04675
G1 X113.986 Y160.551 E-.04675
G1 X114.038 Y160.746 E-.04675
G1 X114.056 Y160.948 E-.04675
G1 X114.038 Y161.15 E-.04676
G1 X113.986 Y161.345 E-.04675
G1 X113.9 Y161.529 E-.04675
G1 X113.784 Y161.695 E-.04675
G1 X113.641 Y161.838 E-.04675
G1 X113.475 Y161.954 E-.04676
G1 X113.323 Y162.025 E-.03858
;WIPE_END
G1 E-.04 F2100
G1 Z.6 F10800
G1 X111.52 Y157.223
G1 Z.2
G1 E.8 F2100
;TYPE:Perimeter
G1 F1200
G1 X111.607 Y158.22 E.03137
G1 X96.093 Y159.577 E.48829
G1 X96.006 Y158.58 E.03137
G1 X95.21 Y158.65 E.02506
G1 X94.802 Y153.994 E.14653
G1 X95.599 Y153.925 E.02506
G1 X95.231 Y149.716 E.13246
G1 X94.434 Y149.786 E.02506
G1 X94.027 Y145.129 E.14657
G1 X94.823 Y145.059 E.02506
G1 X94.736 Y144.064 E.03133
G1 X110.25 Y142.707 E.4883
G1 X110.337 Y143.702 E.03133
G1 X111.134 Y143.632 E.02506
G1 X111.541 Y148.289 E.14657
G1 X110.745 Y148.359 E.02506
G1 X111.113 Y152.567 E.13246
G1 X111.909 Y152.498 E.02506
G1 X112.317 Y157.153 E.14653
G1 X111.58 Y157.218 E.02318
G1 X111.199 Y157.877 F10800
;TYPE:External perimeter
G1 F1200
G1 X96.436 Y159.168 E.46465
G1 X96.349 Y158.172 E.03137
G1 X95.553 Y158.241 E.02506
G1 X95.211 Y154.337 E.12288
G1 X96.007 Y154.267 E.02506
G1 X95.968 Y153.822 E.014
G1 X95.573 Y149.308 E.1421
G1 X94.777 Y149.377 E.02506
G1 X94.435 Y145.472 E.12293
G1 X95.232 Y145.402 E.02506
G1 X95.145 Y144.407 E.03133
G1 X109.907 Y143.115 E.46465
G1 X109.995 Y144.11 E.03133
G1 X110.791 Y144.041 E.02506
G1 X111.133 Y147.946 E.12293
G1 X110.336 Y148.016 E.02506
G1 X110.77 Y152.976 E.15611
G1 X111.567 Y152.906 E.02506
G1 X111.908 Y156.81 E.12288
G1 X111.112 Y156.88 E.02506
G1 X111.194 Y157.817 E.02949
G1 X111.144 Y158.273 F10800
;WIPE_START
G1 F8640
G1 X107.916 Y158.117 E-.76
;WIPE_END
G1 E-.04 F2100
G1 Z.6 F10800
G1 X109.864 Y138.295
G1 Z.2
G1 E.8 F2100
;TYPE:Perimeter
G1 F1200
G1 X109.952 Y139.292 E.03137
G1 X94.437 Y140.649 E.48829
G1 X94.35 Y139.652 E.03137
G1 X93.554 Y139.722 E.02506
G1 X93.146 Y135.067 E.14653
G1 X93.943 Y134.997 E.02506
G1 X93.937 Y134.928 E.00218
G1 X93.575 Y130.788 E.13028
G1 X92.778 Y130.858 E.02506
G1 X92.371 Y126.201 E.14657
G1 X93.167 Y126.131 E.02506
G1 X93.08 Y125.136 E.03133
G1 X108.594 Y123.779 E.48829
G1 X108.681 Y124.774 E.03133
G1 X109.478 Y124.704 E.02506
G1 X109.885 Y129.361 E.14657
G1 X109.089 Y129.431 E.02506
G1 X109.457 Y133.64 E.13246
G1 X110.253 Y133.57 E.02506
G1 X110.661 Y138.225 E.14653
G1 X109.924 Y138.29 E.02318
G1 X109.543 Y138.949 F10800
;TYPE:External perimeter
G1 F1200
G1 X94.78 Y140.241 E.46465
G1 X94.693 Y139.244 E.03137
G1 X93.897 Y139.314 E.02506
G1 X93.555 Y135.409 E.12288
G1 X94.351 Y135.34 E.02506
G1 X94.312 Y134.895 E.014
G1 X93.917 Y130.38 E.1421
G1 X93.121 Y130.45 E.02506
G1 X92.779 Y126.544 E.12293
G1 X93.576 Y126.474 E.02506
G1 X93.489 Y125.479 E.03133
G1 X108.252 Y124.187 E.46465
G1 X108.339 Y125.183 E.03133
G1 X109.135 Y125.113 E.02506
G1 X109.477 Y129.019 E.12293
G1 X108.68 Y129.088 E.02506
M73 Q1 S76
G1 X109.114 Y134.048 E.15611
G1 X109.911 Y133.978 E.02506
G1 X110.252 Y137.883 E.12288
G1 X109.456 Y137.952 E.02506
G1 X109.538 Y138.889 E.02949
G1 X109.488 Y139.345 F10800
;WIPE_START
G1 F8640
G1 X106.26 Y139.189 E-.76
;WIPE_END
G1 E-.04 F2100
G1 Z.6 F10800
G1 X110.272 Y123.71
G1 Z.2
G1 E.8 F2100
;TYPE:Perimeter
G1 F1200
G1 X109.952 Y123.75 E.0101
G1 X109.678 Y123.726 E.00863
G1 X109.419 Y123.656 E.00842
G1 X109.176 Y123.543 E.00842
G1 X108.956 Y123.389 E.00842
G1 X108.766 Y123.199 E.00842
G1 X108.612 Y122.979 E.00842
G1 X108.498 Y122.736 E.00842
G1 X108.429 Y122.476 E.00842
G1 X108.405 Y122.209 E.00842
G1 X108.429 Y121.942 E.00842
G1 X108.498 Y121.682 E.00842
G1 X108.612 Y121.439 E.00842
G1 X108.766 Y121.219 E.00842
G1 X108.956 Y121.029 E.00842
G1 X109.176 Y120.875 E.00842
G1 X109.419 Y120.762 E.00842
G1 X109.678 Y120.692 E.00842
G1 X109.913 Y120.672 E.0074
G1 X110.206 Y120.691 E.00921
G1 X110.472 Y120.762 E.00863
G1 X110.716 Y120.875 E.00842
G1 X110.936 Y121.029 E.00842
G1 X111.125 Y121.219 E.00842
G1 X111.279 Y121.439 E.00842
G1 X111.393 Y121.682 E.00842
G1 X111.462 Y121.942 E.00842
G1 X111.486 Y122.209 E.00842
G1 X111.462 Y122.476 E.00842
G1 X111.393 Y122.736 E.00842
G1 X111.279 Y122.979 E.00842
G1 X111.125 Y123.199 E.00842
G1 X110.936 Y123.389 E.00842
G1 X110.716 Y123.543 E.00842
G1 X110.472 Y123.656 E.00842
G1 X110.33 Y123.694 E.00462
G1 X110.174 Y123.346 F10800
;TYPE:External perimeter
G1 F1200
G1 X109.948 Y123.371 E.00714
G1 X109.744 Y123.353 E.00643
G1 X109.548 Y123.301 E.00635
G1 X109.365 Y123.215 E.00635
G1 X109.199 Y123.099 E.00635
G1 X109.056 Y122.956 E.00635
G1 X108.94 Y122.79 E.00635
G1 X108.854 Y122.606 E.00635
G1 X108.802 Y122.411 E.00635
G1 X108.784 Y122.209 E.00635
G1 X108.802 Y122.007 E.00635
G1 X108.854 Y121.812 E.00635
G1 X108.94 Y121.628 E.00635
G1 X109.056 Y121.462 E.00635
G1 X109.199 Y121.319 E.00635
G1 X109.365 Y121.203 E.00635
G1 X109.548 Y121.117 E.00635
G1 X109.744 Y121.065 E.00635
G1 X109.918 Y121.05 E.00547
G1 X110.145 Y121.064 E.00714
G1 X110.343 Y121.117 E.00643
G1 X110.526 Y121.203 E.00635
G1 X110.692 Y121.319 E.00635
G1 X110.835 Y121.462 E.00635
G1 X110.952 Y121.628 E.00635
G1 X111.037 Y121.812 E.00635
G1 X111.089 Y122.007 E.00635
G1 X111.107 Y122.209 E.00635
G1 X111.089 Y122.411 E.00635
G1 X111.037 Y122.606 E.00635
G1 X110.952 Y122.79 E.00635
G1 X110.835 Y122.956 E.00635
G1 X110.692 Y123.099 E.00635
G1 X110.526 Y123.215 E.00635
G1 X110.343 Y123.301 E.00635
G1 X110.232 Y123.33 E.00359
G1 X110.1 Y123.561 F10800
;WIPE_START
G1 F8640
G1 X109.948 Y123.371 E-.06633
G1 X109.744 Y123.353 E-.04732
G1 X109.548 Y123.301 E-.04675
G1 X109.365 Y123.215 E-.04675
G1 X109.199 Y123.099 E-.04675
G1 X109.056 Y122.956 E-.04675
G1 X108.94 Y122.79 E-.04675
G1 X108.854 Y122.606 E-.04675
G1 X108.802 Y122.411 E-.04675
G1 X108.784 Y122.209 E-.04675
G1 X108.802 Y122.007 E-.04675
G1 X108.854 Y121.812 E-.04675
G1 X108.94 Y121.628 E-.04675
G1 X109.056 Y121.462 E-.04675
G1 X109.199 Y121.319 E-.04675
G1 X109.336 Y121.223 E-.03858
;WIPE_END
G1 E-.04 F2100
G1 Z.6 F10800
G1 X108.208 Y119.367
G1 Z.2
G1 E.8 F2100
;TYPE:Perimeter
G1 F1200
G1 X108.296 Y120.364 E.03137
G1 X92.781 Y121.721 E.48829
G1 X92.694 Y120.725 E.03137
G1 X91.898 Y120.794 E.02506
G1 X91.49 Y116.139 E.14653
G1 X92.287 Y116.069 E.02506
G1 X91.919 Y111.861 E.13246
G1 X91.122 Y111.93 E.02506
G1 X90.715 Y107.273 E.14657
G1 X91.511 Y107.204 E.02506
G1 X91.424 Y106.208 E.03133
G1 X106.938 Y104.851 E.48829
G1 X107.025 Y105.846 E.03133
G1 X107.822 Y105.777 E.02506
G1 X108.229 Y110.434 E.14657
G1 X107.433 Y110.503 E.02506
G1 X107.801 Y114.712 E.13246
G1 X108.597 Y114.642 E.02506
G1 X109.005 Y119.298 E.14653
G1 X108.268 Y119.362 E.02318
G1 X107.887 Y120.021 F10800
;TYPE:External perimeter
G1 F1200
G1 X93.124 Y121.313 E.46465
G1 X93.037 Y120.316 E.03137
