; generated by PrusaSlicer 2.4.1+win64 on 2022-09-12 at 11:52:45 UTC

; 

; external perimeters extrusion width = 0.45mm
; perimeters extrusion width = 0.45mm
; infill extrusion width = 0.45mm
; solid infill extrusion width = 0.45mm
; top infill extrusion width = 0.40mm
; first layer extrusion width = 0.42mm

; external perimeters extrusion width = 0.45mm
; perimeters extrusion width = 0.45mm
; infill extrusion width = 0.45mm
; solid infill extrusion width = 0.45mm
; top infill extrusion width = 0.40mm
; first layer extrusion width = 0.42mm

M73 P0 R211
M73 Q0 S212
M107
;TYPE:Custom
M862.3 P "MK3S" ; printer model check
M862.1 P0.4 ; nozzle diameter check
M115 U3.10.0 ; tell printer latest fw version
G90 ; use absolute coordinates
M83 ; extruder relative mode
M104 S215 ; set extruder temp
M140 S60 ; set bed temp
M190 S60 ; wait for bed temp
M109 S215 ; wait for extruder temp
G28 W ; home all without mesh bed level
G80 ; mesh bed leveling
G1 Y-3.0 F1000.0 ; go outside print area
G92 E0.0
G1 X60.0 E9.0 F1000.0 ; intro line
G1 X100.0 E12.5 F1000.0 ; intro line
G92 E0.0
M221 S95

; Don't change E values below. Excessive value can damage the printer.
M907 E430 ; set extruder motor current
G21 ; set units to millimeters
G90 ; use absolute coordinates
M83 ; use relative distances for extrusion
M900 K0.05 ; Filament gcode LA 1.5
M900 K30 ; Filament gcode LA 1.0
M107
;LAYER_CHANGE
;Z:0.2
;HEIGHT:0.2
;BEFORE_LAYER_CHANGE
G92 E0.0
;0.2


G1 E-.8 F2100
G1 Z.4 F10800
;AFTER_LAYER_CHANGE
;0.2
G1 X29.155 Y33.043
G1 Z.2
G1 E.8 F2100
M204 S1000
;TYPE:Skirt/Brim
;WIDTH:0.42
G1 F1200
G1 X30.12 Y32.486 E.03495
G1 X31.144 Y32.149 E.03381
G1 X138.882 Y8.661 E3.45739
G1 X139.732 Y8.533 E.02694
M73 P0 R210
G1 X140.958 Y8.578 E.03848
G1 X142.389 Y8.996 E.04674
G1 X175.616 Y24.172 E1.14533
G1 X214.276 Y54.731 E1.54511
G1 X215.05 Y55.478 E.03374
G1 X215.617 Y56.299 E.03126
G1 X238.49 Y107.632 E1.76207
G1 X238.667 Y108.174 E.01787
G1 X238.846 Y109.192 E.03243
G1 X238.759 Y110.573 E.04337
G1 X238.525 Y111.447 E.02838
G1 X238.051 Y112.41 E.03366
G1 X221.882 Y136.624 E.9129
G1 X173.767 Y198.884 E2.46712
G1 X173.096 Y199.651 E.03195
G1 X172.105 Y200.382 E.03863
G1 X171.155 Y200.81 E.03266
G1 X170.166 Y201.035 E.03182
G1 X169.634 Y201.087 E.01674
G1 X126.062 Y200.841 E1.3662
G1 X20.886 Y175.886 E3.38926
G1 X19.749 Y175.432 E.03838
M73 Q0 S211
G1 X18.913 Y174.865 E.0317
G1 X17.922 Y173.822 E.04511
G1 X17.219 Y172.444 E.04848
G1 X1.823 Y118.804 E1.74977
G1 X1.651 Y117.33 E.04651
G1 X1.757 Y116.354 E.03078
G1 X11.702 Y68.174 E1.54251
G1 X27.43 Y35.099 E1.14832
G1 X27.915 Y34.29 E.02958
G1 X28.298 Y33.816 E.01912
G1 X29.11 Y33.083 E.0343
; printing object Cumulus Bottom Plate R.stl id:1 copy 0
;WIPE_START
G1 F8640
G1 X30.12 Y32.486 E-.27094
G1 X31.144 Y32.149 E-.24896
G1 X32.16 Y31.928 E-.24011
;WIPE_END
G1 E-.04 F2100
G1 Z.6 F10800
G1 X150.609 Y96.831
G1 Z.2
G1 E.8 F2100
;TYPE:Perimeter
G1 F1200
G1 X150.943 Y96.466 E.0155
G1 X151.36 Y96.201 E.0155
G1 X151.832 Y96.052 E.0155
G1 X152.278 Y96.033 E.01402
G1 X152.801 Y96.134 E.0167
G1 X153.247 Y96.366 E.01575
G1 X153.611 Y96.7 E.0155
G1 X153.877 Y97.117 E.0155
G1 X154.011 Y97.543 E.01402
G1 X154.049 Y98.074 E.0167
G1 X153.94 Y98.565 E.01575
G1 X153.712 Y99.004 E.0155
G1 X153.378 Y99.368 E.0155
G1 X152.961 Y99.634 E.0155
G1 X152.489 Y99.782 E.0155
G1 X151.995 Y99.804 E.0155
G1 X151.513 Y99.697 E.0155
G1 X151.074 Y99.469 E.0155
G1 X150.71 Y99.135 E.0155
G1 X150.444 Y98.718 E.0155
G1 X150.295 Y98.246 E.0155
G1 X150.274 Y97.752 E.0155
G1 X150.381 Y97.27 E.0155
G1 X150.581 Y96.884 E.01362
G1 X150.921 Y97.049 F10800
;TYPE:External perimeter
G1 F1200
G1 X151.188 Y96.758 E.01239
G1 X151.521 Y96.546 E.01239
G1 X151.898 Y96.427 E.01239
G1 X152.25 Y96.411 E.01107
G1 X152.676 Y96.494 E.01358
G1 X153.029 Y96.677 E.01248
G1 X153.32 Y96.944 E.01239
G1 X153.532 Y97.278 E.01239
G1 X153.638 Y97.614 E.01107
G1 X153.669 Y98.046 E.01358
G1 X153.583 Y98.435 E.01248
G1 X153.4 Y98.785 E.01239
G1 X153.133 Y99.077 E.01239
G1 X152.8 Y99.289 E.01239
G1 X152.423 Y99.408 E.01239
G1 X152.029 Y99.425 E.01239
G1 X151.643 Y99.34 E.01239
G1 X151.292 Y99.157 E.01239
G1 X151.001 Y98.89 E.01239
G1 X150.789 Y98.557 E.01239
G1 X150.67 Y98.18 E.01239
G1 X150.653 Y97.785 E.01239
G1 X150.738 Y97.4 E.01239
G1 X150.893 Y97.102 E.01051
G1 X150.754 Y96.691 F10800
;WIPE_START
G1 F8640
G1 X151.188 Y96.758 E-.10468
G1 X151.521 Y96.546 E-.09124
G1 X151.898 Y96.427 E-.09123
G1 X152.25 Y96.411 E-.08151
G1 X152.676 Y96.494 E-.10002
G1 X153.029 Y96.677 E-.0919
G1 X153.32 Y96.944 E-.09123
G1 X153.532 Y97.278 E-.09123
G1 X153.554 Y97.348 E-.01697
;WIPE_END
G1 E-.04 F2100
G1 Z.6 F10800
G1 X141.045 Y121.047
G1 Z.2
G1 E.8 F2100
;TYPE:Perimeter
G1 F1200
G1 X141.49 Y121.279 E.01575
G1 X141.855 Y121.613 E.0155
G1 X142.12 Y122.03 E.0155
G1 X142.255 Y122.456 E.01402
G1 X142.292 Y122.987 E.0167
G1 X142.184 Y123.478 E.01575
G1 X141.955 Y123.916 E.0155
G1 X141.621 Y124.281 E.0155
G1 X141.204 Y124.547 E.0155
G1 X140.733 Y124.695 E.0155
G1 X140.239 Y124.717 E.0155
G1 X139.756 Y124.61 E.0155
G1 X139.318 Y124.382 E.0155
G1 X138.953 Y124.048 E.0155
G1 X138.688 Y123.631 E.0155
G1 X138.539 Y123.159 E.0155
G1 X138.517 Y122.665 E.0155
G1 X138.624 Y122.182 E.0155
G1 X138.831 Y121.786 E.01402
G1 X139.18 Y121.384 E.0167
G1 X139.604 Y121.114 E.01575
G1 X140.075 Y120.965 E.0155
G1 X140.522 Y120.946 E.01402
G1 X140.986 Y121.035 E.01481
G1 X140.919 Y121.407 F10800
;TYPE:External perimeter
G1 F1200
G1 X141.272 Y121.59 E.01248
G1 X141.563 Y121.857 E.01239
G1 X141.776 Y122.191 E.01239
G1 X141.882 Y122.527 E.01107
G1 X141.912 Y122.959 E.01358
G1 X141.826 Y123.348 E.01248
G1 X141.644 Y123.698 E.01239
G1 X141.377 Y123.99 E.01239
G1 X141.044 Y124.202 E.01239
G1 X140.667 Y124.321 E.01239
G1 X140.272 Y124.338 E.01239
G1 X139.886 Y124.252 E.01239
G1 X139.536 Y124.07 E.01239
G1 X139.245 Y123.803 E.01239
G1 X139.032 Y123.47 E.01239
G1 X138.914 Y123.093 E.01239
G1 X138.896 Y122.698 E.01239
G1 X138.982 Y122.313 E.01239
G1 X139.145 Y121.999 E.01107
G1 X139.429 Y121.672 E.01358
G1 X139.764 Y121.458 E.01248
G1 X140.141 Y121.34 E.01239
G1 X140.494 Y121.324 E.01107
G1 X140.86 Y121.395 E.0117
G1 X141.224 Y121.151 F10800
;WIPE_START
G1 F8640
G1 X141.272 Y121.59 E-.10525
G1 X141.563 Y121.857 E-.09123
G1 X141.776 Y122.191 E-.09123
G1 X141.882 Y122.527 E-.08151
G1 X141.912 Y122.959 E-.10002
G1 X141.826 Y123.348 E-.09189
G1 X141.644 Y123.698 E-.09123
G1 X141.377 Y123.99 E-.09124
G1 X141.317 Y124.028 E-.01639
;WIPE_END
G1 E-.04 F2100
G1 Z.6 F10800
G1 X120.51 Y76.908
G1 Z.2
G1 E.8 F2100
;TYPE:Perimeter
G1 F1200
G1 X120.039 Y77.056 E.0155
G1 X119.545 Y77.078 E.0155
G1 X119.062 Y76.971 E.0155
G1 X118.624 Y76.743 E.0155
G1 X118.259 Y76.409 E.0155
G1 X117.994 Y75.992 E.0155
G1 X117.845 Y75.52 E.0155
G1 X117.823 Y75.026 E.0155
G1 X117.93 Y74.544 E.0155
G1 X118.159 Y74.105 E.0155
G1 X118.493 Y73.74 E.0155
G1 X118.91 Y73.475 E.0155
G1 X119.381 Y73.326 E.0155
G1 X119.828 Y73.307 E.01402
G1 X120.351 Y73.408 E.0167
G1 X120.796 Y73.64 E.01575
G1 X121.161 Y73.974 E.0155
G1 X121.426 Y74.391 E.0155
G1 X121.575 Y74.862 E.0155
G1 X121.597 Y75.356 E.0155
G1 X121.49 Y75.839 E.0155
G1 X121.261 Y76.278 E.0155
G1 X120.927 Y76.642 E.0155
G1 X120.561 Y76.875 E.01362
G1 X120.35 Y76.563 F10800
;TYPE:External perimeter
G1 F1200
G1 X119.973 Y76.682 E.01239
G1 X119.578 Y76.699 E.01239
G1 X119.192 Y76.614 E.01239
G1 X118.842 Y76.431 E.01239
G1 X118.551 Y76.164 E.01239
G1 X118.338 Y75.831 E.01239
G1 X118.219 Y75.454 E.01239
G1 X118.202 Y75.059 E.01239
G1 X118.288 Y74.674 E.01239
G1 X118.47 Y74.323 E.01239
G1 X118.737 Y74.032 E.01239
G1 X119.07 Y73.82 E.01239
G1 X119.447 Y73.701 E.01239
G1 X119.8 Y73.685 E.01107
G1 X120.225 Y73.768 E.01358
G1 X120.578 Y73.951 E.01248
G1 X120.869 Y74.218 E.01239
G1 X121.082 Y74.552 E.01239
G1 X121.2 Y74.928 E.01239
G1 X121.218 Y75.323 E.01239
G1 X121.132 Y75.709 E.01239
G1 X120.95 Y76.059 E.01239
G1 X120.683 Y76.351 E.01239
G1 X120.4 Y76.531 E.01051
G1 X120.315 Y76.957 F10800
;WIPE_START
G1 F8640
G1 X119.973 Y76.682 E-.10468
G1 X119.578 Y76.699 E-.09123
G1 X119.192 Y76.614 E-.09123
G1 X118.842 Y76.431 E-.09123
G1 X118.551 Y76.164 E-.09123
G1 X118.338 Y75.831 E-.09123
G1 X118.219 Y75.454 E-.09124
G1 X118.202 Y75.059 E-.09123
G1 X118.218 Y74.989 E-.0167
;WIPE_END
G1 E-.04 F2100
G1 Z.6 F10800
G1 X103.72 Y46.841
G1 Z.2
G1 E.8 F2100
;TYPE:Perimeter
G1 F1200
G1 X103.249 Y46.99 E.0155
G1 X102.755 Y47.011 E.0155
G1 X102.272 Y46.904 E.0155
G1 X101.833 Y46.676 E.0155
G1 X101.469 Y46.342 E.0155
G1 X101.203 Y45.925 E.0155
G1 X101.055 Y45.453 E.0155
G1 X101.033 Y44.959 E.0155
G1 X101.14 Y44.477 E.0155
G1 X101.368 Y44.038 E.0155
G1 X101.702 Y43.674 E.0155
G1 X102.119 Y43.408 E.0155
G1 X102.591 Y43.259 E.0155
G1 X103.038 Y43.24 E.01402
G1 X103.56 Y43.341 E.0167
G1 X104.006 Y43.573 E.01575
G1 X104.37 Y43.907 E.0155
G1 X104.636 Y44.324 E.0155
G1 X104.785 Y44.796 E.0155
G1 X104.806 Y45.29 E.0155
G1 X104.699 Y45.772 E.0155
G1 X104.471 Y46.211 E.0155
G1 X104.137 Y46.575 E.0155
G1 X103.771 Y46.809 E.01362
G1 X103.559 Y46.496 F10800
;TYPE:External perimeter
G1 F1200
G1 X103.183 Y46.615 E.01239
G1 X102.788 Y46.632 E.01239
G1 X102.402 Y46.547 E.01239
G1 X102.052 Y46.364 E.01239
G1 X101.76 Y46.097 E.01239
G1 X101.548 Y45.764 E.01239
G1 X101.429 Y45.387 E.01239
G1 X101.412 Y44.993 E.01239
G1 X101.497 Y44.607 E.01239
G1 X101.68 Y44.256 E.01239
G1 X101.947 Y43.965 E.01239
G1 X102.28 Y43.753 E.01239
G1 X102.657 Y43.634 E.01239
G1 X103.01 Y43.619 E.01107
G1 X103.435 Y43.701 E.01358
G1 X103.788 Y43.885 E.01248
G1 X104.079 Y44.152 E.01239
G1 X104.291 Y44.485 E.01239
G1 X104.41 Y44.862 E.01239
G1 X104.427 Y45.256 E.01239
G1 X104.342 Y45.642 E.01239
G1 X104.16 Y45.993 E.01239
G1 X103.893 Y46.284 E.01239
G1 X103.61 Y46.464 E.01051
G1 X103.525 Y46.89 F10800
;WIPE_START
G1 F8640
G1 X103.183 Y46.615 E-.10468
G1 X102.788 Y46.632 E-.09123
G1 X102.402 Y46.547 E-.09123
G1 X102.052 Y46.364 E-.09123
G1 X101.76 Y46.097 E-.09123
G1 X101.548 Y45.764 E-.09123
G1 X101.429 Y45.387 E-.09123
G1 X101.412 Y44.993 E-.09124
G1 X101.428 Y44.922 E-.0167
;WIPE_END
G1 E-.04 F2100
G1 Z.6 F10800
G1 X138.699 Y15.102
G1 Z.2
G1 E.8 F2100
;TYPE:Perimeter
G1 F1200
G1 X138.433 Y14.685 E.0155
G1 X138.284 Y14.214 E.0155
G1 X138.263 Y13.72 E.0155
G1 X138.37 Y13.237 E.0155
G1 X138.598 Y12.799 E.0155
G1 X138.932 Y12.434 E.0155
G1 X139.349 Y12.169 E.0155
G1 X139.821 Y12.02 E.0155
G1 X140.267 Y12 E.01402
G1 X140.79 Y12.102 E.0167
G1 X141.236 Y12.334 E.01575
G1 X141.6 Y12.668 E.0155
G1 X141.866 Y13.085 E.0155
G1 X142.015 Y13.556 E.0155
G1 X142.036 Y14.05 E.0155
G1 X141.929 Y14.533 E.0155
G1 X141.701 Y14.971 E.0155
G1 X141.367 Y15.336 E.0155
G1 X140.95 Y15.601 E.0155
G1 X140.478 Y15.75 E.0155
G1 X139.984 Y15.772 E.0155
G1 X139.502 Y15.665 E.0155
G1 X139.063 Y15.436 E.0155
G1 X138.743 Y15.143 E.01362
G1 X138.99 Y14.858 F10800
;TYPE:External perimeter
G1 F1200
G1 X138.778 Y14.525 E.01239
G1 X138.659 Y14.148 E.01239
G1 X138.642 Y13.753 E.01239
G1 X138.727 Y13.367 E.01239
G1 X138.91 Y13.017 E.01239
G1 X139.177 Y12.726 E.01239
G1 X139.51 Y12.513 E.01239
G1 X139.887 Y12.394 E.01239
G1 X140.239 Y12.379 E.01107
G1 X140.665 Y12.461 E.01358
G1 X141.018 Y12.645 E.01248
G1 X141.309 Y12.912 E.01239
G1 X141.521 Y13.245 E.01239
G1 X141.64 Y13.622 E.01239
G1 X141.657 Y14.017 E.01239
G1 X141.572 Y14.403 E.01239
G1 X141.389 Y14.753 E.01239
G1 X141.122 Y15.044 E.01239
G1 X140.789 Y15.257 E.01239
G1 X140.412 Y15.376 E.01239
G1 X140.018 Y15.393 E.01239
G1 X139.632 Y15.307 E.01239
G1 X139.281 Y15.125 E.01239
G1 X139.034 Y14.898 E.01051
G1 X138.601 Y14.926 F10800
;WIPE_START
G1 F8640
G1 X138.778 Y14.525 E-.10468
G1 X138.659 Y14.148 E-.09123
G1 X138.642 Y13.753 E-.09124
G1 X138.727 Y13.367 E-.09123
G1 X138.91 Y13.017 E-.09123
G1 X139.177 Y12.726 E-.09123
G1 X139.51 Y12.513 E-.09123
G1 X139.887 Y12.394 E-.09123
G1 X139.959 Y12.391 E-.01669
;WIPE_END
G1 E-.04 F2100
G1 Z.6 F10800
G1 X171.045 Y28.119
G1 Z.2
G1 E.8 F2100
;TYPE:Perimeter
G1 F1200
G1 X171.251 Y27.723 E.01402
G1 X171.6 Y27.321 E.01669
G1 X172.024 Y27.051 E.01575
G1 X172.496 Y26.902 E.0155
G1 X172.942 Y26.882 E.01402
G1 X173.465 Y26.984 E.0167
G1 X173.911 Y27.216 E.01575
G1 X174.275 Y27.55 E.0155
G1 X174.541 Y27.967 E.0155
G1 X174.675 Y28.393 E.01402
G1 X174.713 Y28.924 E.0167
G1 X174.604 Y29.415 E.01575
G1 X174.376 Y29.853 E.0155
G1 X174.042 Y30.218 E.0155
G1 X173.625 Y30.483 E.0155
G1 X173.198 Y30.618 E.01402
G1 X172.667 Y30.655 E.01669
G1 X172.177 Y30.547 E.01575
G1 X171.738 Y30.318 E.0155
G1 X171.374 Y29.984 E.0155
G1 X171.108 Y29.567 E.0155
G1 X170.959 Y29.096 E.0155
G1 X170.938 Y28.602 E.0155
G1 X171.032 Y28.178 E.01362
G1 X171.402 Y28.249 F10800
;TYPE:External perimeter
G1 F1200
G1 X171.565 Y27.936 E.01107
G1 X171.849 Y27.609 E.01358
G1 X172.185 Y27.395 E.01248
G1 X172.562 Y27.276 E.01239
G1 X172.914 Y27.261 E.01107
G1 X173.34 Y27.343 E.01358
G1 X173.693 Y27.527 E.01248
G1 X173.984 Y27.794 E.01239
G1 X174.196 Y28.127 E.01239
G1 X174.302 Y28.464 E.01107
G1 X174.333 Y28.896 E.01358
G1 X174.247 Y29.285 E.01248
G1 X174.064 Y29.635 E.01239
G1 X173.797 Y29.926 E.01239
G1 X173.464 Y30.139 E.01239
G1 X173.127 Y30.245 E.01107
G1 X172.695 Y30.275 E.01358
G1 X172.307 Y30.189 E.01248
G1 X171.956 Y30.007 E.01239
G1 X171.665 Y29.74 E.01239
G1 X171.453 Y29.407 E.01239
G1 X171.334 Y29.03 E.01239
G1 X171.317 Y28.635 E.01239
G1 X171.389 Y28.308 E.01051
G1 X171.175 Y27.979 F10800
;WIPE_START
G1 F8640
G1 X171.565 Y27.936 E-.09496
G1 X171.849 Y27.609 E-.10002
G1 X172.185 Y27.395 E-.0919
G1 X172.562 Y27.276 E-.09123
G1 X172.914 Y27.261 E-.08151
G1 X173.34 Y27.343 E-.10002
G1 X173.693 Y27.527 E-.0919
G1 X173.984 Y27.794 E-.09123
G1 X174.024 Y27.857 E-.01723
;WIPE_END
G1 E-.04 F2100
G1 Z.6 F10800
G1 X209.401 Y57.871
G1 Z.2
G1 E.8 F2100
;TYPE:Perimeter
G1 F1200
G1 X209.735 Y57.507 E.0155
G1 X210.152 Y57.241 E.0155
G1 X210.624 Y57.093 E.0155
G1 X211.07 Y57.073 E.01402
G1 X211.593 Y57.174 E.0167
G1 X212.039 Y57.406 E.01575
G1 X212.403 Y57.74 E.0155
G1 X212.669 Y58.157 E.0155
G1 X212.818 Y58.629 E.0155
G1 X212.839 Y59.123 E.0155
G1 X212.732 Y59.605 E.0155
G1 X212.526 Y60.002 E.01402
G1 X212.177 Y60.404 E.0167
G1 X211.753 Y60.674 E.01575
G1 X211.281 Y60.823 E.0155
G1 X210.787 Y60.844 E.0155
G1 X210.305 Y60.737 E.0155
G1 X209.866 Y60.509 E.0155
G1 X209.502 Y60.175 E.0155
G1 X209.236 Y59.758 E.0155
G1 X209.087 Y59.287 E.0155
G1 X209.066 Y58.793 E.0155
G1 X209.173 Y58.31 E.0155
G1 X209.373 Y57.925 E.01362
G1 X209.713 Y58.09 F10800
;TYPE:External perimeter
G1 F1200
G1 X209.98 Y57.798 E.01239
G1 X210.313 Y57.586 E.01239
G1 X210.69 Y57.467 E.01239
G1 X211.042 Y57.452 E.01107
G1 X211.468 Y57.534 E.01358
G1 X211.821 Y57.718 E.01248
G1 X212.112 Y57.985 E.01239
G1 X212.324 Y58.318 E.01239
G1 X212.443 Y58.695 E.01239
G1 X212.46 Y59.09 E.01239
G1 X212.375 Y59.475 E.01239
G1 X212.212 Y59.789 E.01107
G1 X211.928 Y60.116 E.01358
G1 X211.592 Y60.329 E.01248
G1 X211.215 Y60.448 E.01239
G1 X210.821 Y60.466 E.01239
G1 X210.435 Y60.38 E.01239
G1 X210.084 Y60.198 E.01239
G1 X209.793 Y59.931 E.01239
G1 X209.581 Y59.597 E.01239
G1 X209.462 Y59.221 E.01239
G1 X209.445 Y58.826 E.01239
G1 X209.53 Y58.44 E.01239
G1 X209.685 Y58.143 E.01051
G1 X209.546 Y57.732 F10800
;WIPE_START
G1 F8640
G1 X209.98 Y57.798 E-.10468
G1 X210.313 Y57.586 E-.09123
G1 X210.69 Y57.467 E-.09123
G1 X211.042 Y57.452 E-.08151
G1 X211.468 Y57.534 E-.10003
G1 X211.821 Y57.718 E-.09189
G1 X212.112 Y57.985 E-.09123
G1 X212.324 Y58.318 E-.09123
G1 X212.346 Y58.388 E-.01697
;WIPE_END
G1 E-.04 F2100
G1 Z.6 F10800
G1 X232.684 Y107.859
G1 Z.2
G1 E.8 F2100
;TYPE:Perimeter
G1 F1200
G1 X233.155 Y107.71 E.0155
G1 X233.602 Y107.691 E.01402
G1 X234.125 Y107.792 E.01669
G1 X234.57 Y108.024 E.01575
G1 X234.935 Y108.358 E.0155
G1 X235.201 Y108.775 E.0155
G1 X235.349 Y109.246 E.0155
G1 X235.371 Y109.74 E.0155
G1 X235.264 Y110.223 E.0155
G1 X235.036 Y110.661 E.0155
G1 X234.702 Y111.026 E.0155
G1 X234.285 Y111.292 E.0155
G1 X233.813 Y111.44 E.0155
G1 X233.319 Y111.462 E.0155
G1 X232.836 Y111.355 E.0155
G1 X232.398 Y111.127 E.0155
G1 X232.033 Y110.793 E.0155
G1 X231.768 Y110.376 E.0155
G1 X231.619 Y109.904 E.0155
